build/img/9-resources/pharmacy.svg

<svg width="40" height="40" viewBox="0 0 40 40" fill="none" xmlns="http://www.w3.org/2000/svg">
<path d="M19.9995 18.7559V28.4313C19.9995 28.8627 20.3494 29.2125 20.7808 29.2125H34.1477C34.5791 29.2125 34.929 28.8627 34.929 28.4313V18.7559C34.929 18.3244 34.5791 17.9746 34.1477 17.9746H20.7808C20.3494 17.9746 19.9995 18.3244 19.9995 18.7559ZM33.3665 27.6499H27.4303L32.1143 19.537H33.3666V27.6499H33.3665ZM21.562 19.5371H28.3352L23.6512 27.65H21.562V19.5371Z" fill="#333333"/>
<path d="M39.2188 12.5C39.6502 12.5 40 12.1502 40 11.7188V6.25C40 5.81852 39.6502 5.46875 39.2188 5.46875H26.25V4.21875C26.25 3.78727 25.9002 3.4375 25.4688 3.4375H22.8125V0.78125C22.8125 0.349766 22.4627 0 22.0312 0H17.9688C17.5373 0 17.1875 0.349766 17.1875 0.78125V3.4375H14.5312C14.0998 3.4375 13.75 3.78727 13.75 4.21875V5.46875H0.78125C0.349766 5.46875 0 5.81852 0 6.25V11.7188C0 12.1502 0.349766 12.5 0.78125 12.5H1.71875V34.6875H0.78125C0.349766 34.6875 0 35.0373 0 35.4688V39.2188C0 39.6502 0.349766 40 0.78125 40H39.2188C39.6502 40 40 39.6502 40 39.2188V35.4688C40 35.0373 39.6502 34.6875 39.2188 34.6875H38.2812V12.5H39.2188ZM38.4375 7.03125V10.9375H22.8125V9.0625H25.4688C25.9002 9.0625 26.25 8.71273 26.25 8.28125V7.03125H38.4375ZM15.3125 5H17.9688C18.4002 5 18.75 4.65023 18.75 4.21875V1.5625H21.25V4.21875C21.25 4.65023 21.5998 5 22.0312 5H24.6875V7.5H22.0312C21.5998 7.5 21.25 7.84977 21.25 8.28125V10.9375H18.75V8.28125C18.75 7.84977 18.4002 7.5 17.9688 7.5H15.3125V5ZM1.5625 7.03125H13.75V8.28125C13.75 8.71273 14.0998 9.0625 14.5312 9.0625H17.1875V10.9375H1.5625V7.03125ZM38.4375 38.4375H1.5625V36.25H38.4375V38.4375ZM7.03125 27.8987H8.04422C8.4757 27.8987 8.82547 27.5489 8.82547 27.1174C8.82547 26.6859 8.4757 26.3362 8.04422 26.3362H7.03125V19.4612H16.2491V34.6875H7.03125V27.8987ZM36.7188 34.6875H17.8116V18.6799C17.8116 18.2484 17.4619 17.8987 17.0304 17.8987H6.25C5.81852 17.8987 5.46875 18.2484 5.46875 18.6799V34.6875H3.28125V12.5H36.7188V34.6875Z" fill="#333333"/>
</svg>

<svg width="40" height="40" fill="none" xmlns="http://www.w3.org/2000/svg"><path d="M20 18.756v9.675c0 .432.35.781.78.781h13.368c.431 0 .781-.35.781-.78v-9.676a.781.781 0 00-.781-.781H20.78a.781.781 0 00-.781.78zm13.367 8.894H27.43l4.684-8.113h1.253v8.113zm-11.805-8.113h6.773l-4.684 8.113h-2.089v-8.113z" fill="#333"/><path d="M39.219 12.5c.431 0 .781-.35.781-.781V6.25a.781.781 0 00-.781-.781H26.25v-1.25a.781.781 0 00-.781-.782h-2.657V.781a.781.781 0 00-.78-.781h-4.063a.781.781 0 00-.782.781v2.656h-2.656a.781.781 0 00-.781.782v1.25H.781A.781.781 0 000 6.25v5.469c0 .431.35.781.781.781h.938v22.188H.78a.781.781 0 00-.781.78v3.75c0 .432.35.782.781.782H39.22c.431 0 .781-.35.781-.781v-3.75a.781.781 0 00-.781-.782h-.938V12.5h.938zm-.782-5.469v3.907H22.813V9.062h2.656c.431 0 .781-.35.781-.78v-1.25h12.188zM15.314 5h2.656c.431 0 .781-.35.781-.781V1.562h2.5V4.22c0 .431.35.781.781.781h2.657v2.5H22.03a.781.781 0 00-.781.781v2.656h-2.5V8.281a.781.781 0 00-.781-.781h-2.657V5zM1.563 7.031H13.75v1.25c0 .432.35.781.781.781h2.656v1.876H1.563V7.03zm36.874 31.407H1.563V36.25h36.874v2.188zM7.032 27.898h1.013a.781.781 0 000-1.562H7.031v-6.875h9.218v15.227H7.031v-6.79zm29.688 6.79H17.812V18.68a.781.781 0 00-.782-.781H6.25a.781.781 0 00-.781.78v16.009H3.28V12.5H36.72v22.188z" fill="#333"/></svg>
